dist/img/svg/message.svg

<svg width="16" height="16" viewBox="0 0 16 16" fill="none" xmlns="http://www.w3.org/2000/svg">
<path d="M5 6.5564V6.5M8 6.5564V6.5M11 6.5564V6.5M9.63044 10.8696L8 14L6.5 10.8696H3.5C2.67157 10.8696 2 10.198 2 9.36957V3.5C2 2.67157 2.67157 2 3.5 2H12.5C13.3284 2 14 2.67157 14 3.5V9.36956C14 10.198 13.3284 10.8696 12.5 10.8696H9.63044Z" stroke="currentColor" stroke-linecap="round" stroke-linejoin="round"/>
</svg>

<svg width="16" height="16" viewBox="0 0 16 16" fill="none" xmlns="http://www.w3.org/2000/svg"><path d="M5 6.556V6.5m3 .056V6.5m3 .056V6.5m-1.37 4.37L8 14l-1.5-3.13h-3A1.5 1.5 0 012 9.37V3.5A1.5 1.5 0 013.5 2h9A1.5 1.5 0 0114 3.5v5.87a1.5 1.5 0 01-1.5 1.5H9.63z" stroke="currentColor" stroke-linecap="round" stroke-linejoin="round"/></svg>
